svgs/sharp-light/square-this-way-up.svg

<svg xmlns="http://www.w3.org/2000/svg" viewBox="0 0 448 512"><!--! Font Awesome Pro 6.6.0 by @fontawesome - https://fontawesome.com License - https://fontawesome.com/license (Commercial License) Copyright 2024 Fonticons, Inc. --><path d="M32 64l0 384 384 0 0-384L32 64zM0 32l32 0 384 0 32 0 0 32 0 384 0 32-32 0L32 480 0 480l0-32L0 64 0 32zM352 368l0 32L96 400l0-32 256 0zM144 105.4l11.3 11.3 64 64-22.6 22.6L160 166.6 160 304l0 16-32 0 0-16 0-137.4L91.3 203.3 68.7 180.7l64-64L144 105.4zm160 0l11.3 11.3 64 64-22.6 22.6L320 166.6 320 304l0 16-32 0 0-16 0-137.4-36.7 36.7-22.6-22.6 64-64L304 105.4z"/></svg>

<svg xmlns="http://www.w3.org/2000/svg" viewBox="0 0 448 512"><!--! Font Awesome Pro 6.4.2 by @fontawesome - https://fontawesome.com License - https://fontawesome.com/license (Commercial License) Copyright 2023 Fonticons, Inc. --><path d="M32 64V448H416V64H32zM0 32H32 416h32V64 448v32H416 32 0V448 64 32zM352 368v32H96V368H352zM144 105.4l11.3 11.3 64 64-22.6 22.6L160 166.6V304v16H128V304 166.6L91.3 203.3 68.7 180.7l64-64L144 105.4zm160 0l11.3 11.3 64 64-22.6 22.6L320 166.6V304v16H288V304 166.6l-36.7 36.7-22.6-22.6 64-64L304 105.4z"/></svg>
